static/logos/sendinblue-glyph-color.svg

<svg width="50" height="54" viewBox="0 0 50 54" fill="none" xmlns="http://www.w3.org/2000/svg">
<g clip-path="url(#clip0_1_1126)">
<path fill-rule="evenodd" clip-rule="evenodd" d="M44.9059 38.3917C43.5495 40.7455 41.3344 42.4828 38.7251 43.2391C39.0981 41.9588 39.2885 40.6324 39.2908 39.299C39.2908 32.6583 34.7142 27.0885 28.571 25.5719C29.8445 24.3264 31.4169 23.4294 33.1371 22.9672C34.4639 22.606 35.8493 22.513 37.2125 22.6934C38.5756 22.8739 39.8891 23.3243 41.0762 24.0182C46.0725 26.9198 47.7902 33.3672 44.9059 38.3917ZM25.2225 49.8203C22.4897 49.8203 19.8902 48.7286 17.9616 46.8646C19.2497 46.5483 20.4861 46.0498 21.6335 45.3844C27.3501 42.0651 29.858 35.2974 28.096 29.1901C32.4705 30.4505 35.685 34.5005 35.685 39.299C35.685 45.0995 30.9908 49.8203 25.2225 49.8203ZM5.53817 38.3917C4.17203 36.0115 3.81839 33.2073 4.45693 30.599C5.37311 31.557 6.41926 32.3817 7.56473 33.049C9.69337 34.2888 12.1128 34.942 14.5762 34.9417C16.477 34.9401 18.3577 34.5536 20.1052 33.8057C21.8526 33.0577 23.4306 31.9637 24.7439 30.5896C25.8413 35.0271 23.96 39.8453 19.8309 42.2432C18.2481 43.1652 16.4491 43.6508 14.6173 43.6505C12.7748 43.6513 10.9648 43.1654 9.37046 42.2419C7.77603 41.3184 6.45384 39.9903 5.53765 38.3917H5.53817ZM5.53765 15.5344C6.89416 13.1805 9.10947 11.4432 11.7189 10.687C11.3451 11.9674 11.1544 13.2943 11.1522 14.6281C11.1522 21.2651 15.7267 26.8333 21.8668 28.3526C18.5939 31.5328 13.4991 32.3068 9.36785 29.9078C6.94702 28.5016 5.21629 26.2333 4.49286 23.5182C4.1334 22.1842 4.04065 20.7922 4.21993 19.4222C4.39921 18.0522 4.84701 16.7311 5.53765 15.5344ZM25.2225 4.10575C27.9564 4.10575 30.5533 5.19637 32.4804 7.05885C31.1934 7.37791 29.9579 7.87708 28.8106 8.54166C25.5554 10.4323 23.2272 13.4828 22.2554 17.1339C21.5893 19.6282 21.6199 22.2573 22.3439 24.7354C17.9715 23.474 14.7595 19.4245 14.7595 14.6281C14.7595 8.82604 19.4528 4.10575 25.2225 4.10575ZM44.9059 15.5344C46.2736 17.9177 46.6278 20.725 45.985 23.3365C45.0712 22.3743 44.0258 21.5462 42.8798 20.8771C39.6246 18.988 35.8335 18.4859 32.2028 19.4641C29.7175 20.1336 27.4659 21.4772 25.6965 23.3464C25.2628 21.6133 25.2774 19.7983 25.7392 18.0724C26.4616 15.3578 28.1929 13.0885 30.6137 11.6828C33.034 10.2781 35.8533 9.90468 38.5527 10.6318C41.2522 11.3594 43.508 13.1005 44.9059 15.5344ZM48.0293 13.7219C46.1501 10.4484 43.1163 8.10729 39.4856 7.12916C38.6273 6.89916 37.7493 6.75057 36.8632 6.68541C34.259 2.83439 29.8876 0.479187 25.2225 0.479187C20.3908 0.479187 16.1215 2.94221 13.5871 6.68385C8.96577 7.02552 4.74859 9.65573 2.41526 13.7208C0.535052 16.9937 0.0366129 20.8073 1.00849 24.4583C1.23973 25.3205 1.55098 26.1593 1.93818 26.9635C-0.0758871 31.1578 0.0814048 36.1422 2.41422 40.2057C4.82984 44.413 9.084 46.8969 13.5725 47.2344C16.1767 51.0885 20.5569 53.4479 25.222 53.4479C30.0533 53.4479 34.3225 50.9844 36.8564 47.2422C41.4778 46.9005 45.6949 44.2713 48.0288 40.2057C50.4449 35.9974 50.4574 31.0479 48.5022 26.9703C50.5189 22.774 50.3626 17.7875 48.0288 13.7219" fill="#0092FF"/>
</g>
<defs>
<clipPath id="clip0_1_1126">
<rect width="50" height="53.6458" fill="white"/>
</clipPath>
</defs>
</svg>

<svg xmlns="http://www.w3.org/2000/svg" width="59.259" height="64" fill="none" viewBox="0 0 50 54"><g clip-path="url(#a)"><path fill="#0092FF" fill-rule="evenodd" d="M44.906 38.392a10.51 10.51 0 0 1-6.18 4.847c.372-1.28.563-2.607.565-3.94 0-6.64-4.577-12.21-10.72-13.727a10.384 10.384 0 0 1 4.566-2.605 10.347 10.347 0 0 1 7.94 1.051c4.995 2.902 6.713 9.35 3.829 14.374ZM25.223 49.82a10.474 10.474 0 0 1-7.261-2.955 13.952 13.952 0 0 0 3.672-1.48c5.716-3.32 8.224-10.088 6.462-16.195A10.526 10.526 0 0 1 35.685 39.3c0 5.8-4.694 10.521-10.463 10.521ZM5.538 38.392c-1.366-2.38-1.72-5.185-1.081-7.793a14.17 14.17 0 0 0 3.108 2.45 13.928 13.928 0 0 0 7.011 1.893 14.082 14.082 0 0 0 10.168-4.352c1.097 4.437-.784 9.255-4.913 11.653a10.354 10.354 0 0 1-5.214 1.407 10.459 10.459 0 0 1-9.08-5.258h.001Zm0-22.858a10.511 10.511 0 0 1 6.18-4.847 14.147 14.147 0 0 0-.566 3.941c0 6.637 4.575 12.205 10.715 13.725-3.273 3.18-8.368 3.954-12.5 1.555a10.447 10.447 0 0 1-4.874-6.39 10.505 10.505 0 0 1 1.045-7.984ZM25.222 4.106c2.734 0 5.331 1.09 7.258 2.953a14.082 14.082 0 0 0-10.225 10.075 14.117 14.117 0 0 0 .089 7.601 10.525 10.525 0 0 1-7.585-10.107c0-5.802 4.694-10.522 10.463-10.522Zm19.684 11.428a10.602 10.602 0 0 1 1.079 7.803 14.057 14.057 0 0 0-3.105-2.46 13.913 13.913 0 0 0-10.677-1.413 13.958 13.958 0 0 0-6.507 3.882 10.522 10.522 0 0 1 .043-5.274 10.443 10.443 0 0 1 4.875-6.39 10.346 10.346 0 0 1 7.939-1.05c2.7.727 4.955 2.469 6.353 4.902Zm3.123-1.812a13.987 13.987 0 0 0-8.543-6.593 14.137 14.137 0 0 0-2.623-.444C34.26 2.835 29.888.48 25.223.48c-4.832 0-9.101 2.463-11.636 6.205A14.117 14.117 0 0 0 2.415 13.72a14.127 14.127 0 0 0-1.407 10.737c.232.863.543 1.701.93 2.506-2.014 4.194-1.857 9.178.476 13.242a14.055 14.055 0 0 0 11.159 7.028c2.604 3.855 6.984 6.214 11.649 6.214 4.831 0 9.1-2.464 11.634-6.206a14.117 14.117 0 0 0 11.173-7.036c2.416-4.209 2.428-9.158.473-13.236 2.017-4.196 1.86-9.182-.473-13.248" clip-rule="evenodd"/></g><defs><clipPath id="a"><path fill="#fff" d="M0 0h50v53.646H0z"/></clipPath></defs></svg>
